X:3711
L:1/8
Q:1/4=120
M:2/2
K:G
"^Quick" G2 (ge) d2 ed | B2 ge dBFA | G2 ge d2 ed | BGAF G2 EG | D2 ge dBef | g2 ge dBFA | 
 G2 ge ffed | BGAF [GB]3 [G_B]- | [GB]2 g2 ffef | g2 g2 dBFA | [GB]2 [Bg]2 eedc | BGAF G2 EG | 
 D2 ge fdef | g2 ge dBFA | G2 gd egdc | BGAF G2 |: [G_B]2- | [GB]ABc dfed | Bdde dBGA | Bdge dged | 
 BGAG EFGA |1 GABc dfed | Bdde dBGA | Bdge dged | BGAG- G2 :|2 GABc dBed | Bcde dBGA | Bcde faed | 
 BGAG [GB]2 || (3(Bcd | e2) (ed) e2 ef | gefd edBA | (B2 e2) efge | fgaf gfed | EEed efed | 
 EedB ed B2 | E2 e2 efge | fgaf gfed | EBed e2 e2 | fedB edBG | E e2 d efge | fgaf gfed | 
 EGBd efed | fedB ed B2 | gabg abag | bgaf gage || [GB]2 ga gdef | gdef gdef | g2 ga g2 ed | 
 BAGA BGAB | G2 B2 |] ga gdef | gdef gdef | [Bg]2 fa gded | BGA(G [GB]2) ef |:S g2 g2 bgbg | 
 f2 f2 afaf | g2 ga bg b2 | fbaf gdef | g2 g2 bgbg | f2 f2 afaf | g2 ga bgbg | fbaf g2 || (3DEF | 
 G2 ge d2 ed | B2 ge dBFA | G2 ge d2 ed BGAG- G2 efS |]

